X: 11211
T: Larghetto
C: Bossi
B: "Man of Feeling", Gaetano Brandi, ed. p.121
F: http://archive.org/details/manoffeelingorge00rugg
Z: 2012 John Chambers <jc:trillian.mit.edu>
M: 3/4
L: 1/8
Q: "Larghetto"
K: G
|:\
B4 A2 | (A>G) G2 z2 | Gz/^G/ Az/B/ cz/A/ | G7/2 (A//G//) F2 |\
(c4 B2) | (e4 d)>B | A2 {B}A>GA>B | G4 z2 :|
|: c4 B2 |\
(B>A) A2 z2 | d4 c2 | (c>B) B2 z2 | e3 (f/^g/) a>a |\
d3 e/f/ g/a/b/g/ | e>a (g2 f2) | g2 G2 z2 :|
%
%%center -

%%sep 2 1 500
%%sep 1 1 500

